public/assets/twitter.svg

<svg width="35" height="35" viewBox="0 0 35 35" fill="none" xmlns="http://www.w3.org/2000/svg">
<path d="M31.4022 10.3712C31.4245 10.6821 31.4245 10.9931 31.4245 11.304C31.4245 20.7868 24.2069 31.7132 11.0152 31.7132C6.95112 31.7132 3.17577 30.5361 0 28.4931C0.577432 28.5597 1.13258 28.5819 1.73223 28.5819C5.0856 28.5819 8.17257 27.4493 10.6377 25.5172C7.48412 25.4505 4.84135 23.3852 3.9308 20.5425C4.375 20.6091 4.81913 20.6536 5.28555 20.6536C5.92956 20.6536 6.57364 20.5647 7.17322 20.4093C3.88644 19.743 1.42126 16.856 1.42126 13.3693V13.2805C2.37617 13.8135 3.48667 14.1466 4.66361 14.191C2.7315 12.9029 1.46569 10.7043 1.46569 8.21701C1.46569 6.88455 1.82096 5.66311 2.44282 4.59711C5.97393 8.94989 11.2817 11.7925 17.2334 12.1034C17.1224 11.5704 17.0557 11.0153 17.0557 10.4601C17.0557 6.507 20.2537 3.28687 24.229 3.28687C26.2943 3.28687 28.1598 4.15298 29.4701 5.55209C31.0912 5.24119 32.6458 4.64154 34.0227 3.81986C33.4897 5.48551 32.3571 6.88462 30.8692 7.77288C32.3127 7.6175 33.7118 7.21767 34.9999 6.66252C34.0229 8.08378 32.8014 9.34959 31.4022 10.3712Z" fill="#0680D7"/>
</svg>

<svg width="35" height="35" fill="none" xmlns="http://www.w3.org/2000/svg"><path d="M31.402 10.371c.022.311.022.622.022.933 0 9.483-7.217 20.41-20.409 20.41-4.064 0-7.84-1.178-11.015-3.22.577.066 1.133.088 1.732.088 3.354 0 6.44-1.133 8.906-3.065a7.186 7.186 0 0 1-6.707-4.974c.444.066.888.11 1.355.11.644 0 1.288-.088 1.887-.244a7.174 7.174 0 0 1-5.752-7.04v-.088a7.225 7.225 0 0 0 3.243.91 7.168 7.168 0 0 1-3.198-5.974 7.12 7.12 0 0 1 .977-3.62 20.39 20.39 0 0 0 14.79 7.506 8.098 8.098 0 0 1-.177-1.643 7.17 7.17 0 0 1 7.173-7.173c2.065 0 3.93.866 5.241 2.265 1.621-.31 3.176-.91 4.553-1.732a7.153 7.153 0 0 1-3.154 3.953A14.381 14.381 0 0 0 35 6.663a15.418 15.418 0 0 1-3.597 3.708Z" fill="#0680D7"/></svg>
